X:89
T:Macleod of Mull 
C:Joe Buchanan's Scottish Tome - Page 083.0
I:083 0
C:P.M. D. MacLeod
Z:Carl Allison
R:Jig
M:6/8
K:D
"Bm"{^g}a2f a>ff | "A"e>fa "F#m"f2c | "A"e>ce "F#m"f>ec | "F#m"A>Bc {ef}(e2f) |
"Bm"{^g}a2f a>ff | "A"e>fa "F#m"f2e | "Bm"f>aa (f<a)e | "F#m"f>ec "Bm"{Bc}B3 |
"Bm"{^g}a2f a>ff | "A"e>fa "F#m"f2e | "A"f>aa (f<e)c | "F#m"A>Bc "A"{ef}e2 f |
"A"a>cc "Bm"B>cA | "Bm"B>ce "F#m"f2e | "Bm"f>aa f<ae | "F#m"f>ec "Bm"{Bc}B3 |]
f | "Bm"B>cA {Bc}B3 | B>ce "F#m"f>ga | "A"(c<A)B c2B | "A"{d}c2A (c<e)f |
"Bm"B>cA {Bc}B3 | B>ce "F#m"f2e | "Bm"f>aa (f<a)e | "F#m"f<ec "Bm"{Bc}B2 :|
f | "F#m"{^g}a2f e>ff | "Bm"B>ff {^g}f2e | "F#m"f>aa e>ff | "A"A>ee "Bm"(e2c) |
"F#m"{^g}a2f e>ff | "Bm"B>ff {^g}f2e | "Bm"f>aa (f<a)e | "F#m"f>ec "Bm"{Bc}B2 f |
"F#m"{^g}a2f e>ff | "Bm"B>ff {^g}f2e | "Bm"f>aa (f<a)e | "A"A>ee (e2c) |
"Bm"{c}B2B c>Bc | B>ce {^g}f2e | "Bm"f>aa (f<a)e | "F#m"f>ec {Bc}B3 |]

